src/assets/svg/icons/fa/nuevos/classic/thin/pen-line classic thin.svg

<svg xmlns="http://www.w3.org/2000/svg" viewBox="0 0 576 512"><path d="M383.7 14.63C402.4-4.12 432.8-4.12 451.5 14.63L497.4 60.46C516.1 79.2 516.1 109.6 497.4 128.3L176 449.7C163.7 461.1 148.5 471 131.8 475.9L10.26 511.7C7.449 512.5 4.413 511.7 2.343 509.7C.2733 507.6-.5009 504.6 .3254 501.7L36.08 380.2C40.99 363.5 50.02 348.3 62.32 335.1L383.7 14.63zM440.2 25.94C427.7 13.44 407.5 13.44 394.1 25.94L328.1 92.8L419.2 183.9L486.1 117C498.6 104.5 498.6 84.27 486.1 71.77L440.2 25.94zM51.43 384.7L19.81 492.2L127.3 460.6C141.5 456.4 154.3 448.8 164.7 438.4L407.9 195.2L316.8 104.1L73.63 347.3C63.22 357.7 55.59 370.5 51.44 384.7H51.43zM568 496C572.4 496 576 499.6 576 504C576 508.4 572.4 512 568 512H232C227.6 512 224 508.4 224 504C224 499.6 227.6 496 232 496H568z"/></svg>

<svg xmlns="http://www.w3.org/2000/svg" viewBox="0 0 576 512"><!--! Font Awesome Pro 6.4.0 by @fontawesome - https://fontawesome.com License - https://fontawesome.com/license (Commercial License) Copyright 2023 Fonticons, Inc. --><path d="M440.2 25.9c-12.5-12.5-32.8-12.5-45.3 0L328.1 92.8l91.1 91.1L486.1 117c12.5-12.5 12.5-32.8 0-45.3L440.2 25.9zM73.6 347.3c-10.4 10.4-18 23.3-22.2 37.4L19.8 492.2l107.5-31.6c14.1-4.2 27-11.8 37.4-22.2L407.9 195.2l-91.1-91.1L73.6 347.3zm310-332.7c18.7-18.7 49.1-18.7 67.9 0l45.8 45.8c18.7 18.7 18.7 49.1 0 67.9L176 449.7c-12.3 12.3-27.5 21.3-44.2 26.2L10.3 511.7c-2.8 .8-5.8 .1-7.9-2s-2.8-5.1-2-7.9L36.1 380.2C41 363.5 50 348.3 62.3 336L383.7 14.6zM232 496H568c4.4 0 8 3.6 8 8s-3.6 8-8 8H232c-4.4 0-8-3.6-8-8s3.6-8 8-8z"/></svg>
